public/logos/etsy.svg

<?xml version="1.0" encoding="UTF-8" standalone="no"?><!DOCTYPE svg PUBLIC "-//W3C//DTD SVG 1.1//EN" "http://www.w3.org/Graphics/SVG/1.1/DTD/svg11.dtd"><svg width="100%" height="100%" viewBox="0 0 501 238" version="1.1" xmlns="http://www.w3.org/2000/svg" xmlns:xlink="http://www.w3.org/1999/xlink" xml:space="preserve" xmlns:serif="http://www.serif.com/" style="fill-rule:evenodd;clip-rule:evenodd;stroke-linejoin:round;stroke-miterlimit:2;"><path d="M232.556,160.571c-8.901,-0 -14.083,-5.975 -14.083,-21.501l0,-54.789l29.589,2.276l1.504,-14.103l-30.402,1.504l0,-31.093l-8.901,-0c-4.389,24.407 -15.424,33.288 -30.239,34.791l-0,7.398l17.66,-0l-0,62.226c-0,16.989 11.949,25.829 26.683,25.829c11.888,0 24.427,-5.182 28.816,-15.505l-4.409,-5.183c-2.195,3.658 -8.17,8.15 -16.218,8.15Zm-71.005,-16.319c-5.975,14.022 -15.587,14.815 -25.199,14.815l-31.093,-0c-10.324,-0 -14.815,-3.78 -14.815,-12.6l0,-45.887c0,-0 22.192,-0 29.609,0.792c5.914,0.712 8.901,2.215 11.096,9.613l2.195,10.384l8.901,0l-0.792,-26.601l1.503,-25.972l-8.819,-0l-2.988,11.888c-1.483,8.109 -2.987,8.901 -11.096,10.324c-10.323,0.772 -29.609,0.772 -29.609,0.772l0,-54.747c0,-2.277 0,-2.988 3.76,-2.988l46.558,0c8.169,0 12.599,6.625 15.505,19.916l2.988,10.405l8.108,-0c0.793,-29.61 1.504,-42.148 1.504,-42.148c0,-0 -19.936,2.134 -31.743,2.134l-59.198,-0l-31.093,-0.63l-0,8.108l10.324,2.175c7.458,1.503 9.653,2.987 9.653,9.612c-0,-0 0.792,19.997 0.792,53.223c0,33.308 -0.792,53.305 -0.792,53.305c-0,5.914 -2.195,8.109 -9.653,9.613l-10.324,2.296l-0,8.048l31.804,-0.712l53.305,0c11.807,0 39.933,0.712 39.933,0.712c0.691,-7.337 4.389,-39.913 5.182,-43.612l-7.479,0l-8.027,17.762Zm122.746,-53.285c-0,-9.632 8.88,-13.311 17.781,-13.311c7.316,0 13.271,2.988 14.815,6.605l5.182,14.815l7.337,-0.711c-0,-7.398 0.772,-17.03 2.255,-24.407c-6.665,-2.988 -19.976,-4.491 -28.877,-4.491c-19.997,-0 -35.503,8.962 -35.503,28.186c-0,34.02 49.586,26.622 49.586,51.801c-0,8.109 -5.203,14.815 -17.802,14.815c-11.807,0 -17.01,-5.975 -19.205,-11.888l-5.893,-14.083l-7.499,-0c0.813,9.673 1.504,19.265 0,28.085c0,-0 15.587,5.974 31.113,5.974c20.769,0 37.759,-10.303 37.759,-29.609c-0,-34.019 -51.049,-28.878 -51.049,-51.781Zm129.431,-19.204l-0,7.397l5.263,1.504c5.121,1.423 7.316,3.617 7.316,7.377c0,2.195 -0.691,2.926 -1.483,5.914c-2.195,5.913 -16.299,40.705 -23.614,56.231c-7.82,-19.821 -15.225,-39.801 -22.213,-59.93c-0.711,-1.483 -0.711,-2.195 -0.711,-2.967c0,-3.008 2.134,-5.934 7.336,-6.625l6.686,-1.504l0,-7.397l-27.353,1.484l-22.273,-0.793l-0,7.478l3.8,1.403c5.101,1.504 5.833,2.235 9.531,10.405c14.083,31.092 29.609,71.716 34.873,84.336c-11.868,20.709 -24.468,26.602 -34.08,26.602c-5.914,-0 -8.109,-2.987 -8.84,-6.686l-2.967,-15.506l-8.129,0.711c-1.484,9.694 -2.988,19.997 -5.182,28.106c5.832,3.699 12.518,5.975 21.399,5.954c14.042,0 34.039,-3.698 53.305,-47.391l32.535,-76.147c2.947,-5.954 3.699,-6.686 11.096,-9.673l3.719,-2.926l0,-7.357l-19.204,0.691l-20.81,-0.691Z" style="fill:#656a8d;fill-rule:nonzero;"/></svg>

<?xml version="1.0" encoding="UTF-8" standalone="no"?>
<!DOCTYPE svg PUBLIC "-//W3C//DTD SVG 1.1//EN" "http://www.w3.org/Graphics/SVG/1.1/DTD/svg11.dtd">
<svg width="100%" height="100%" viewBox="0 0 501 238" version="1.1" xmlns="http://www.w3.org/2000/svg" xmlns:xlink="http://www.w3.org/1999/xlink" xml:space="preserve" xmlns:serif="http://www.serif.com/" style="fill-rule:evenodd;clip-rule:evenodd;stroke-linejoin:round;stroke-miterlimit:2;">
    <path d="M232.556,160.571C223.655,160.571 218.473,154.596 218.473,139.07L218.473,84.281L248.062,86.557L249.566,72.454L219.164,73.958L219.164,42.865L210.263,42.865C205.874,67.272 194.839,76.153 180.024,77.656L180.024,85.054L197.684,85.054L197.684,147.28C197.684,164.269 209.633,173.109 224.367,173.109C236.255,173.109 248.794,167.927 253.183,157.604L248.774,152.421C246.579,156.079 240.604,160.571 232.556,160.571ZM161.551,144.252C155.576,158.274 145.964,159.067 136.352,159.067L105.259,159.067C94.935,159.067 90.444,155.287 90.444,146.467L90.444,100.58C90.444,100.58 112.636,100.58 120.053,101.372C125.967,102.084 128.954,103.587 131.149,110.985L133.344,121.369L142.245,121.369L141.453,94.768L142.956,68.796L134.137,68.796L131.149,80.684C129.666,88.793 128.162,89.585 120.053,91.008C109.73,91.78 90.444,91.78 90.444,91.78L90.444,37.033C90.444,34.756 90.444,34.045 94.204,34.045L140.762,34.045C148.931,34.045 153.361,40.67 156.267,53.961L159.255,64.366L167.363,64.366C168.156,34.756 168.867,22.218 168.867,22.218C168.867,22.218 148.931,24.352 137.124,24.352L77.926,24.352L46.833,23.722L46.833,31.83L57.157,34.005C64.615,35.508 66.81,36.992 66.81,43.617C66.81,43.617 67.602,63.614 67.602,96.84C67.602,130.148 66.81,150.145 66.81,150.145C66.81,156.059 64.615,158.254 57.157,159.758L46.833,162.054L46.833,170.102L78.637,169.39L131.942,169.39C143.749,169.39 171.875,170.102 171.875,170.102C172.566,162.765 176.264,130.189 177.057,126.49L169.578,126.49L161.551,144.252ZM284.297,90.967C284.297,81.335 293.177,77.656 302.078,77.656C309.394,77.656 315.349,80.644 316.893,84.261L322.075,99.076L329.412,98.365C329.412,90.967 330.184,81.335 331.667,73.958C325.002,70.97 311.691,69.467 302.79,69.467C282.793,69.467 267.287,78.429 267.287,97.653C267.287,131.673 316.873,124.275 316.873,149.454C316.873,157.563 311.67,164.269 299.071,164.269C287.264,164.269 282.061,158.294 279.866,152.381L273.973,138.298L266.474,138.298C267.287,147.971 267.978,157.563 266.474,166.383C266.474,166.383 282.061,172.357 297.587,172.357C318.356,172.357 335.346,162.054 335.346,142.748C335.346,108.729 284.297,113.87 284.297,90.967ZM413.728,71.763L413.728,79.16L418.991,80.664C424.112,82.087 426.307,84.281 426.307,88.041C426.307,90.236 425.616,90.967 424.824,93.955C422.629,99.868 408.525,134.66 401.21,150.186C393.39,130.365 385.985,110.385 378.997,90.256C378.286,88.773 378.286,88.061 378.286,87.289C378.286,84.281 380.42,81.355 385.622,80.664L392.308,79.16L392.308,71.763L364.955,73.247L342.682,72.454L342.682,79.932L346.482,81.335C351.583,82.839 352.315,83.57 356.013,91.74C370.096,122.832 385.622,163.456 390.886,176.076C379.018,196.785 366.418,202.678 356.806,202.678C350.892,202.678 348.697,199.691 347.966,195.992L344.999,180.486L336.87,181.197C335.386,190.891 333.882,201.194 331.688,209.303C337.52,213.002 344.206,215.278 353.087,215.257C367.129,215.257 387.126,211.559 406.392,167.866L438.927,91.719C441.874,85.765 442.626,85.033 450.023,82.046L453.742,79.12L453.742,71.763L434.538,72.454L413.728,71.763Z" style="fill:white;fill-rule:nonzero;"/>
</svg>
